X:55
T:Blast of Wind, A
T:Rakes Of Westmeath, The
T:Humours Of Westmeath, The
T:Drops of Spring Water
R:slip jig
Z:id:hn-slipjig-55
M:9/8
K:D
d3 dAG FED | d2d dAF GFE | ABc dAG FGA | =cBc E2F GFE :|
d2g fdf e^cA | d2g fdf gfe | d2g fdf eAB | =cBc E2F GFE |
d2g fdf e^cA | d2g fdf efg | afa ge^c dAB | =cBc E2F GFE ||
P:variations
|: d3 dAG FED | ded dAF G2B | ABc dAG FGA | =cBc E2F GFE :|
D2g fdf e^cA | d2g fdf gfe | d2g fdf eAB | =cBc E2F GFE |
D2g fdf e^cA | d2g fdf g2e | afd edc dAB | =cBc E2F GFE ||
<end>
<start>
